build/logo/WecloudSolid.svg

<svg xmlns="http://www.w3.org/2000/svg" fill="none" viewBox="0 0 24 24" focusable="false"><path d="M0 0H24V24H0z"/><path fill="#74767B" fill-rule="evenodd" d="M12.5419 4.37109C10.4941 4.37109 8.79958 5.85629 8.51485 7.78943C9.5303 8.26394 10.3627 9.05494 10.8798 10.0325C11.1557 9.98767 11.4391 9.96432 11.7281 9.96432C12.3261 9.96432 12.9003 10.0643 13.4344 10.2482C13.8212 10.3814 14.1869 10.5586 14.5254 10.7737C14.7877 10.9404 15.0336 11.1299 15.2601 11.3393C15.3638 11.2479 15.4627 11.1513 15.5563 11.05C15.8366 10.7467 16.0701 10.4008 16.2455 10.0235C16.4762 9.52747 16.6064 8.97707 16.6109 8.39727C16.611 8.38694 16.611 8.37661 16.611 8.36626C16.611 6.15979 14.7892 4.37109 12.5419 4.37109ZM6.30255 8.36626C4.05522 8.36626 2.2334 10.155 2.2334 12.3614C2.2334 14.5679 4.05522 16.3566 6.30255 16.3566C6.45297 16.3566 6.60148 16.3486 6.74768 16.333C6.63428 15.9157 6.57383 15.4772 6.57383 15.0249C6.57383 12.8971 7.91133 11.076 9.80591 10.3279C9.09728 9.15361 7.79357 8.36626 6.30255 8.36626ZM15.9682 12.1469C16.5446 12.9639 16.8823 13.9557 16.8823 15.0249C16.8823 15.8616 16.6755 16.6509 16.3093 17.3462C16.583 17.396 16.8652 17.422 17.1536 17.422C19.7006 17.422 21.7653 15.3948 21.7653 12.8941C21.7653 10.5736 19.9874 8.66085 17.6961 8.39725C17.687 9.88824 17.0211 11.2264 15.9682 12.1469ZM11.7281 11.0297C11.5776 11.0297 11.4291 11.0377 11.2829 11.0533C10.9147 11.0927 10.5612 11.1802 10.2292 11.3095C10.13 11.3481 10.0328 11.3904 9.93768 11.4362C8.58802 12.0865 7.65893 13.4492 7.65893 15.0249C7.65893 15.3889 7.70853 15.7416 7.80146 16.0768C8.27173 17.7729 9.85157 19.02 11.7281 19.02C13.2348 19.02 14.5503 18.216 15.2537 17.0211C15.5994 16.4337 15.7972 15.752 15.7972 15.0249C15.7972 14.1875 15.5348 13.4103 15.0864 12.7682C14.874 12.4642 14.62 12.1904 14.3323 11.9549C14.1782 11.8288 14.0145 11.7136 13.8424 11.6107C13.5711 11.4484 13.2789 11.3164 12.9708 11.2194C12.9403 11.2099 12.9097 11.2006 12.879 11.1917C12.5158 11.0868 12.1315 11.0303 11.7339 11.0297L11.7281 11.0297Z"/></svg>

<svg xmlns="http://www.w3.org/2000/svg" fill="none" viewBox="0 0 24 24" focusable="false"><path fill="#74767B" fill-rule="evenodd" d="M8.51 7.78c.28-1.93 1.98-3.41 4.03-3.41 2.24 0 4.07 1.78 4.07 3.99v.03c-.01.58-.14 1.13-.37 1.63-.17.38-.41.72-.69 1.03-.09.1-.19.19-.29.28a6 6 0 0 0-.74-.56c-.34-.22-.7-.39-1.09-.53a5.3 5.3 0 0 0-2.56-.21 5.1 5.1 0 0 0-2.36-2.25m-2.21.58c-2.25 0-4.07 1.79-4.07 4 0 2.2 1.82 3.99 4.07 3.99.15 0 .3-.01.44-.02a5.2 5.2 0 0 1-.17-1.31c0-2.13 1.34-3.95 3.23-4.7a4.09 4.09 0 0 0-3.5-1.96m9.66 3.78c.58.82.92 1.81.92 2.88 0 .84-.21 1.63-.58 2.32.28.05.56.08.85.08 2.55 0 4.61-2.03 4.61-4.53 0-2.32-1.78-4.23-4.07-4.5a5 5 0 0 1-1.73 3.75m-4.24-1.12c-.15 0-.3.01-.44.03-.37.04-.72.13-1.06.25-.1.04-.19.09-.29.13-1.35.65-2.28 2.01-2.28 3.59 0 .36.05.72.15 1.05.47 1.7 2.05 2.95 3.92 2.95 1.51 0 2.83-.81 3.53-2 .34-.59.54-1.27.54-2 0-.84-.26-1.61-.71-2.26q-.315-.45-.75-.81c-.16-.13-.32-.24-.49-.34-.27-.17-.57-.3-.87-.4-.03-.01-.07-.01-.1-.02-.36-.11-.74-.16-1.14-.17z"/></svg>
